public/img/home/solutions/icon-solutions-10.svg

<svg fill="none" height="87" viewBox="0 0 109 87" width="109" xmlns="http://www.w3.org/2000/svg"><g fill="#fff"><path d="m73.4543 36.5918-6.0236-12.8383c-.0898-.1907-.2802-.3116-.4891-.3116h-9.2512c-.2586-1.5405-1.5928-2.7183-3.1953-2.7183-1.6024 0-2.9366 1.1778-3.1952 2.7183h-9.2415c-.2088 0-.3993.122-.4891.3116l-6.0236 12.8383h.0011c-.0336.0708-.053.1493-.053.2332 0 3.6442 2.9452 6.6098 6.5646 6.6098s6.5646-2.9656 6.5646-6.6098c0-.0828-.0205-.1613-.053-.2321h.0011l-5.659-12.0616h8.3878c.2283 1.3641 1.2995 2.4426 2.6542 2.6725v20.1139h-8.667c-.2045 0-.3916.1155-.4825.2996l-2.9042 5.8014c-.0844.1689-.0757.3693.0227.5306.0985.1612.2727.2593.461.2593h24.2254c.1882 0 .3624-.0981.4609-.2593.0985-.1613.1071-.3617.0227-.5306l-2.9041-5.8014c-.092-.1841-.2792-.2996-.4826-.2996h-8.667v-20.1139c1.3547-.2299 2.4259-1.3084 2.6542-2.6725h8.3976l-5.659 12.0616h.0011c-.0336.0708-.053.1493-.053.2331 0 3.6443 2.9452 6.6099 6.5646 6.6099s6.5646-2.9656 6.5646-6.6099c0-.0828-.0205-.1612-.053-.232h.0011zm-31.3959-11.3305 5.1699 11.0189c-1.3882 0-1.9292-.0043-2.454-.0076-.5757-.0033-1.1188-.0065-2.7148-.0065s-2.3523.0032-3.0167.0065c-.5356.0033-1.0863.0054-2.1532.0065l5.1699-11.0178zm0 17.084c-2.8403 0-5.184-2.1866-5.4556-4.9756 1.2628 0 1.8622-.0044 2.4454-.0065.6633-.0033 1.3482-.0066 3.0113-.0066 1.663 0 2.1348.0033 2.7083.0066.5615.0032 1.1404.0065 2.7472.0076-.2726 2.789-2.6152 4.9756-5.4555 4.9756zm23.6714 10.7738h-22.4682l2.3588-4.712h17.7506zm-11.2347-26.959c-1.1902 0-2.1586-.9751-2.1586-2.1735s.9684-2.1735 2.1586-2.1735c1.1903 0 2.1587.9751 2.1587 2.1735s-.9684 2.1735-2.1587 2.1735zm17.6164 10.1201c-1.0668 0-1.6176-.0043-2.1532-.0065-.6643-.0033-1.3514-.0066-3.0167-.0066-1.6652 0-2.1391.0033-2.7147.0066-.5259.0032-1.0658.0065-2.4541.0076l5.1699-11.0189 5.1699 11.0178zm-5.1699 6.0651c-2.8403 0-5.1839-2.1866-5.4555-4.9756 1.6068 0 2.1857-.0044 2.7472-.0076.5735-.0033 1.1156-.0066 2.7083-.0066 1.5928 0 2.348.0033 3.0113.0066.5821.0032 1.1827.0065 2.4454.0065-.2727 2.789-2.6153 4.9756-5.4556 4.9756z"/><path d="m105.827 4h-102.65322c-1.19888 0-2.17378.98162-2.17378 2.18875v62.55425c0 1.2072.9749 2.1888 2.17378 2.1888h47.33842v5.1085h-8.8801c-.725 0-1.3136.5938-1.3136 1.3226v5.3156c0 .7299.5897 1.3226 1.3136 1.3226h25.7358c.725 0 1.3136-.5938 1.3136-1.3226v-5.3156c0-.7299-.5897-1.3226-1.3136-1.3226h-8.8801v-5.1085h47.3382c1.199 0 2.174-.9816 2.174-2.1888v-62.55425c0-1.20713-.975-2.18875-2.174-2.18875zm-38.4591 73.2453c.0639 0 .1158.0523.1158.1165v5.3156c0 .0643-.0519.1166-.1158.1166h-25.7358c-.0639 0-.1158-.0523-.1158-.1166v-5.3156c0-.0642.0519-.1165.1158-.1165zm-15.6579-1.2061v-4.9876h5.5789v4.9876zm55.208-7.2973c0 .6058-.49 1.0993-1.092 1.0993h-102.65222c-.6016 0-1.09176-.4924-1.09176-1.0993v-62.55315c0-.60575.48907-1.09928 1.09176-1.09928h102.65322c.602 0 1.092.49244 1.092 1.09928v62.55425z"/><path d="m100.196 9.75353h-91.39246c-1.19888 0-2.17378.98157-2.17378 2.18877v51.0483c0 1.2072.9749 2.1888 2.17378 2.1888h91.39246c1.199 0 2.174-.9816 2.174-2.1888v-51.0494c0-1.2071-.975-2.18876-2.174-2.18876zm1.092 53.23597c0 .6058-.489 1.0993-1.092 1.0993h-91.39246c-.6016 0-1.09176-.4924-1.09176-1.0993v-51.0483c0-.6058.49016-1.0993 1.09176-1.0993h91.39246c.602 0 1.092.4925 1.092 1.0993z"/></g></svg>

<svg width="109" height="87" viewBox="0 0 109 87" fill="none" xmlns="http://www.w3.org/2000/svg">
<path d="M73.4543 36.5918L67.4307 23.7535C67.3409 23.5628 67.1505 23.4419 66.9416 23.4419H57.6904C57.4318 21.9014 56.0976 20.7236 54.4951 20.7236C52.8927 20.7236 51.5585 21.9014 51.2999 23.4419H42.0584C41.8496 23.4419 41.6591 23.5639 41.5693 23.7535L35.5457 36.5918H35.5468C35.5132 36.6626 35.4938 36.7411 35.4938 36.825C35.4938 40.4692 38.439 43.4348 42.0584 43.4348C45.6778 43.4348 48.623 40.4692 48.623 36.825C48.623 36.7422 48.6025 36.6637 48.57 36.5929H48.5711L42.9121 24.5313H51.2999C51.5282 25.8954 52.5994 26.9739 53.9541 27.2038V47.3177H45.2871C45.0826 47.3177 44.8955 47.4332 44.8046 47.6173L41.9004 53.4187C41.816 53.5876 41.8247 53.788 41.9231 53.9493C42.0216 54.1105 42.1958 54.2086 42.3841 54.2086H66.6095C66.7977 54.2086 66.9719 54.1105 67.0704 53.9493C67.1689 53.788 67.1775 53.5876 67.0931 53.4187L64.189 47.6173C64.097 47.4332 63.9098 47.3177 63.7064 47.3177H55.0394V27.2038C56.3941 26.9739 57.4653 25.8954 57.6936 24.5313H66.0912L60.4322 36.5929H60.4333C60.3997 36.6637 60.3803 36.7422 60.3803 36.826C60.3803 40.4703 63.3255 43.4359 66.9449 43.4359C70.5643 43.4359 73.5095 40.4703 73.5095 36.826C73.5095 36.7432 73.489 36.6648 73.4565 36.594H73.4576L73.4543 36.5918ZM42.0584 25.2613L47.2283 36.2802C45.8401 36.2802 45.2991 36.2759 44.7743 36.2726C44.1986 36.2693 43.6555 36.2661 42.0595 36.2661C40.4635 36.2661 39.7072 36.2693 39.0428 36.2726C38.5072 36.2759 37.9565 36.278 36.8896 36.2791L42.0595 25.2613H42.0584ZM42.0584 42.3453C39.2181 42.3453 36.8744 40.1587 36.6028 37.3697C37.8656 37.3697 38.465 37.3653 39.0482 37.3632C39.7115 37.3599 40.3964 37.3566 42.0595 37.3566C43.7225 37.3566 44.1943 37.3599 44.7678 37.3632C45.3293 37.3664 45.9082 37.3697 47.515 37.3708C47.2424 40.1598 44.8998 42.3464 42.0595 42.3464L42.0584 42.3453ZM65.7298 53.1191H43.2616L45.6204 48.4071H63.371L65.7298 53.1191ZM54.4951 26.1601C53.3049 26.1601 52.3365 25.185 52.3365 23.9866C52.3365 22.7882 53.3049 21.8131 54.4951 21.8131C55.6854 21.8131 56.6538 22.7882 56.6538 23.9866C56.6538 25.185 55.6854 26.1601 54.4951 26.1601ZM72.1115 36.2802C71.0447 36.2802 70.4939 36.2759 69.9583 36.2737C69.294 36.2704 68.6069 36.2671 66.9416 36.2671C65.2764 36.2671 64.8025 36.2704 64.2269 36.2737C63.701 36.2769 63.1611 36.2802 61.7728 36.2813L66.9427 25.2624L72.1126 36.2802H72.1115ZM66.9416 42.3453C64.1013 42.3453 61.7577 40.1587 61.4861 37.3697C63.0929 37.3697 63.6718 37.3653 64.2333 37.3621C64.8068 37.3588 65.3489 37.3555 66.9416 37.3555C68.5344 37.3555 69.2896 37.3588 69.9529 37.3621C70.535 37.3653 71.1356 37.3686 72.3983 37.3686C72.1256 40.1576 69.783 42.3442 66.9427 42.3442L66.9416 42.3453Z" fill="white"/>
<path d="M105.827 4H3.17378C1.9749 4 1 4.98162 1 6.18875V68.743C1 69.9502 1.9749 70.9318 3.17378 70.9318H50.5122V76.0403H41.6321C40.9071 76.0403 40.3185 76.6341 40.3185 77.3629V82.6785C40.3185 83.4084 40.9082 84.0011 41.6321 84.0011H67.3679C68.0929 84.0011 68.6815 83.4073 68.6815 82.6785V77.3629C68.6815 76.633 68.0918 76.0403 67.3679 76.0403H58.4878V70.9318H105.826C107.025 70.9318 108 69.9502 108 68.743V6.18875C108 4.98162 107.025 4 105.826 4H105.827ZM67.3679 77.2453C67.4318 77.2453 67.4837 77.2976 67.4837 77.3618V82.6774C67.4837 82.7417 67.4318 82.794 67.3679 82.794H41.6321C41.5682 82.794 41.5163 82.7417 41.5163 82.6774V77.3618C41.5163 77.2976 41.5682 77.2453 41.6321 77.2453H67.3679ZM51.71 76.0392V71.0516H57.2889V76.0392H51.71ZM106.918 68.7419C106.918 69.3477 106.428 69.8412 105.826 69.8412H3.17378C2.57218 69.8412 2.08202 69.3488 2.08202 68.7419V6.18875C2.08202 5.583 2.57109 5.08947 3.17378 5.08947H105.827C106.429 5.08947 106.919 5.58191 106.919 6.18875V68.743L106.918 68.7419Z" fill="white"/>
<path d="M100.196 9.75353H8.80354C7.60466 9.75353 6.62976 10.7351 6.62976 11.9423V62.9906C6.62976 64.1978 7.60466 65.1794 8.80354 65.1794H100.196C101.395 65.1794 102.37 64.1978 102.37 62.9906V11.9412C102.37 10.7341 101.395 9.75244 100.196 9.75244V9.75353ZM101.288 62.9895C101.288 63.5953 100.799 64.0888 100.196 64.0888H8.80354C8.20194 64.0888 7.71178 63.5964 7.71178 62.9895V11.9412C7.71178 11.3354 8.20194 10.8419 8.80354 10.8419H100.196C100.798 10.8419 101.288 11.3344 101.288 11.9412V62.9895Z" fill="white"/>
</svg>
